!!!!SEGMENT: pl-kk--kk-i-382--072_anonim--offertorium-nro-13.krn
!!!cenid: 18xx:1574
!!!COM: Anonim
!!!COM-rismID: pe30004985
!!!CDT:
!!!CNT:
!!!OTL: Offertorium Nro 13
!!!PDT:
!!!AGN: Sacred
!!!SMS-siglum: PL-Kk
!!!SMS-shelfmark: Kk.I.382
!!!SMS-shelfwork: 058 W
!!!SMS-variant:
!!!SMS-altvar:
!!!NIFC-rismSourceID: 1001139027
!!!NIFC-rismChildID: 1001141173
!!!NIFC-islandoraID: pl-kk:6162
!!!URL-pdf-islandora: https://repozytorium.nifc.pl/islandora/object/pl-kk%3A6162/datastream/PDF/view
!!!URL-scan: https://polish.musicsources.pl/pl/lokalizacje/galeria/rekopisy/5994 @EN{Scan on Polish Music Sources Website} @PL{Skany w portalu Dziedzictwo Muzyki Polskiej w otwartym dostępie}
!!!IIIF:
!!!ONB-nifc: UWAGA: Offertoria od skanu 0041 (S/T1), 0113 (T2), 0185 (A/B1), 0262 (B2)
!!!AIN: 1 alto 1 bass 2 tenor
!!!key:
**kern	**text	**kern	**text	**kern	**text	**kern	**text
*part4	*part4	*part3	*part3	*part2	*part2	*part1	*part1
*group1	*	*group1	*	*group1	*	*group1	*
*staff4	*staff4	*staff3	*staff3	*staff2	*staff2	*staff1	*staff1
*Ibass	*	*Itenor	*	*Ialto	*	*Itenor	*
*I"Basso II	*	*I"Tenore II	*	*I"Alto vel Basso I	*	*I"Soprano vel Tenore I.	*
*I'B II	*	*I'T II	*	*I'A vel B I	*	*I'S vel T I	*
*clefF4	*	*clefC4	*	*clefC3	*	*clefC1	*
*k[b-]	*	*k[b-]	*	*k[b-]	*	*k[b-]	*
*F:	*	*F:	*	*F:	*	*F:	*
*M3/4	*	*M3/4	*	*M3/4	*	*M3/4	*
=1	=1	=1	=1	=1	=1	=1	=1
*all\right	*	*all\right	*	*all\right	*	*all\right	*
*2\right	*	*2\right	*	*2\right	*	*2\right	*
2F\	E-	2A\	E-	2c\	E-	2f/	E-
4C/	-ja	4c\	-ja	4e\	-ja	4g\	-ja
=2	=2	=2	=2	=2	=2	=2	=2
2F\	Ma-	2c\	Ma-	2f\	Ma-	2a\	Ma-
4F\	-ter	4c\	-ter	4f\	-ter	4a\	-ter
=3	=3	=3	=3	=3	=3	=3	=3
2D\	fons	2d\	fons	2f\	Fons	2b-X\	fons
4En\	a-	4d\	a-	4g\	a-	4b-\	a-
=4	=4	=4	=4	=4	=4	=4	=4
2.F\	-mo-	2.c\	-mo-	2.a\	-mo-	2.a\	-mo-
=5	=5	=5	=5	=5	=5	=5	=5
2.F\	-ris,	2.c\	-ris	2.f\	-ris	2.a\	-ris
=6	=6	=6	=6	=6	=6	=6	=6
2FF/	me	2c\	me	2a\	me	2cc\	me
4FF/	sen-	4A\	sen-	4a\	sen-	4cc\	sen-
!LO:LB:g=original	!	!	!	!	!	!	!
=7	=7	=7	=7	=7	=7	=7	=7
2GG/	-ti-	2d\	-ti-	2g\	-ti-	2b-X\	-ti-
4GG/	-re	4B-\	-re	4g\	-re,	4b-\	-re
!	!	!	!	!LO:LB:g=original	!	!LO:LB:g=original	!
=8	=8	=8	=8	=8	=8	=8	=8
2AA/	vim	2c\	vim	2f\	vim	2a\	vim
4BB-/	do-	4F/	do-	4f\	do-	4a\	do-
!	!	!LO:LB:g=original	!	!	!	!	!
=9	=9	=9	=9	=9	=9	=9	=9
2.C/	-lo-	2.c\	-lo-	2.e\	-lo-	2.g\	-lo-
=10	=10	=10	=10	=10	=10	=10	=10
2.C/	-ris	2.c\	-ris	2.e\	-ris	2.g\	-ris
=11	=11	=11	=11	=11	=11	=11	=11
2F\	fac	2A\	fac	2c\	fac	2f/	fac
4E\	ut	4c\	ut	4c\	ut	4g\	ut
=12	=12	=12	=12	=12	=12	=12	=12
2F\	te-	2c\	te-	2f\	te-	2a\	te-
4BB-/	-cum	4d\	-cum	4f\	-cum	4b-\	-cum
=13	=13	=13	=13	=13	=13	=13	=13
2C/	lu-	2c\	lu-	2f\	lu-	2g\	lu-
4C/	-ge-	4c\	-ge-	4e\	-ge-	4g\	-ge-
=14	=14	=14	=14	=14	=14	=14	=14
!	!	!	!	!	!	!LO:TX:a:t=P:problem=dwie cienkie kreski	!
2.FF/	-am.	2.c\	-am.	2.f\	-am.	2.a\	-am
!LO:LB:g=original	!	!	!	!	!	!	!
=15|!	=15|!	=15|!	=15|!	=15|!	=15|!	=15|!	=15|!
2D\	Fac	2A\	Fac	2d\	Fac	2f/	fac
4C/	ut	4c\	ut	4e\	ut	4g\	ut
!	!	!	!	!	!	!LO:LB:g=original	!
=16	=16	=16	=16	=16	=16	=16	=16
4.F\	ar-	4.c\	ar-	4.f\	ar-	4.a\	ar-
8E\	-de-	8c\	-de-	8c\	-de-	8a\	-de-
4D\	-at	4d\	-at	4f\	-at	(8f/L	-at
.	.	.	.	.	.	8g/J)	.
=17	=17	=17	=17	=17	=17	=17	=17
4C/	cor	4A\	cor	4e\	cor	4a\	cor
2BB-X/	me-	2d\	me-	(4d\	me-	(4a\	me-
.	.	.	.	4g\)	.	4g\)	.
!	!	!LO:LB:g=original	!	!	!	!	!
=18	=18	=18	=18	=18	=18	=18	=18
4AA/	-um	4c#X\	-um	2e\	-um	2.a\	-um
4e 4E\	in	4e\	in	.	.	.	.
4d 4D\	a-	4d\	a-	4r	.	.	.
=19	=19	=19	=19	=19	=19	=19	=19
!	!	!	!	!LO:TX:a:t=1.	!	!LO:TX:b:t=2	!
!	!	!	!	!	!	!LO:N:vis=0	!
4c 4C\	-ma,	2cn\	-man-	2.r	.	1.r	.
4A\	in	.	.	.	.	.	.
4G\	a-	4Bn\	-do	.	.	.	.
=20	=20	=20	=20	=20	=20	=20-	=20
2F\	-man-	2.A\	Chri-	4r	.	.	.
.	.	.	.	4a\	in	.	.
!LO:TX:b:t=V&colon; S&colon;	!	!	!	!	!	!	!
4E\	-do	.	.	4g\	a-	.	.
!LO:PB:g=original	!	!	!	!	!	!	!
=21	=21	=21	=21	=21	=21	=21	=21
2D\	Chri-	2.A\	-stum	(8f\L	-man-	4r	.
.	.	.	.	8e\	.	.	.
.	.	.	.	8f\	.	4dd\	in
.	.	.	.	8g\J)	.	.	.
4D\	-stum	.	.	4a\	-do	4cc\	a-
!	!	!	!	!LO:LB:g=original	!	!	!
=22	=22	=22	=22	=22	=22	=22	=22
[2.E\	De-	(2G#X/	Chri-	2e\	Chri-	4.bn\	-man-
.	.	.	.	.	.	8b\	-do
.	.	4A/)	.	4c\	-stum	4cc\	Chri-
=23	=23	=23	=23	=23	=23	=23	=23
2.E\]	.	4A\	-stum	2.e\	De-	4cc\	-stum
.	.	(4A\	De-	.	.	(4cc\	De-
.	.	4G#X\)	.	.	.	4bn\)	.
!	!	!	!	!	!	!LO:LB:g=original	!
=24	=24	=24	=24	=24	=24	=24	=24
!	!	!LO:TX:b:t=V&colon; S&colon;	!	!	!	!	!
2AA/	-um,	2.A\	-um,	2.e\	-um	2.cc\	-um,
4F\	ut	.	.	.	.	.	.
!	!	!LO:PB:g=original	!	!	!	!	!
=25	=25	=25	=25	=25	=25	=25	=25
!	!	!	!	!LO:TX:a:t=1.	!	!LO:TX:b:t=2.	!
!	!	!	!	!	!	!LO:N:vis=0	!
4E\	si-	4r	.	2.r	.	1.r	.
4C\	-bi	4r	.	.	.	.	.
4E\	com-	4c\	ut	.	.	.	.
=26	=26	=26	=26	=26	=26	=26-	=26
4.F\	-pla-	4A/	si-	4r	.	.	.
.	.	4F/	-bi	4r	.	.	.
8G\L	.	.	.	.	.	.	.
8A\	.	4c\	ut	4f\	ut	.	.
8B-\J	.	.	.	.	.	.	.
=27	=27	=27	=27	=27	=27	=27	=27
4c\	-ce-	(8c\L	si-	4e\	si-	4r	.
.	.	8d\J)	.	.	.	.	.
2C/	-am	(8e\L	-bi	4c\	-bi	4r	.
.	.	8d\	.	.	.	.	.
.	.	8c\	.	4e\	ut	4cc\	ut
.	.	8B-\J)	.	.	.	.	.
=28	=28	=28	=28	=28	=28	=28	=28
4.D\	pla-	(4A\	com-	(4.f\	si-	4a\	si-
.	.	2d\)	.	.	.	4f/	-bi
8E\L	.	.	.	8g\)	.	.	.
8F\	.	.	.	4a\	-bi	4a\	com-
8G\J	.	.	.	.	.	.	.
!	!	!	!	!LO:LB:g=original	!	!	!
=29	=29	=29	=29	=29	=29	=29	=29
2A\	.	(2c#X\	-pla-	(4.e\	com-	2a\	-pla-
.	.	.	.	8f\	.	.	.
[4G\	.	4d\	.	4g\)	.	[4b-X\	.
!LO:LB:g=original	!	!	!	!	!	!	!
=30	=30	=30	=30	=30	=30	=30	=30
!LO:TX:a:t=P:problem=brak zakończenia ligatury	!	!	!	!	!	!	!
4G\]	.	2d\)	.	(8g\L	-pla-	4b-\]	.
.	.	.	.	(8f\J)	.	.	.
4A\	.	.	.	4.e\)	.	2a\	-ce-
4AA/	-ce-	4c#X\	-ce-	.	.	.	.
.	.	.	.	8e\	-ce-	.	.
=31	=31	=31	=31	=31	=31	=31	=31
2.D\	-am.	2.d\	-am.	2.f#X\	-am.	2.a\	-am,
=32|!	=32|!	=32|!	=32|!	=32|!	=32|!	=32|!	=32|!
2F\	San-	2A\	San-	2c\	San-	2f/	San-
4C/	-cta	4c\	-cta	4e\	-cta	4g/	-cta
=33	=33	=33	=33	=33	=33	=33	=33
2F\	Ma-	2c\	Ma-	2f\	Ma-	2a\	Ma-
!	!	!	!	!LO:TX:b:t=V&colon; S&colon;	!	!	!
4F\	-ter	4c\	-ter	4f\	-ter	4a\	-ter
!	!	!LO:LB:g=original	!	!LO:PB:g=original	!	!LO:LB:g=original	!
=34	=34	=34	=34	=34	=34	=34	=34
2D\	i-	2d\	i-	2f\	i-	2b-\	is-
4En\	-stud	4d\	-stud	4g\	-stud	4b-\	-tud
=35	=35	=35	=35	=35	=35	=35	=35
2.F\	a-	2.c\	a-	2.a\	a-	2.a\	a-
=36	=36	=36	=36	=36	=36	=36	=36
2.F\	-gas	2.c\	-gas	2.f\	-gas	2.a\	-gas
=37	=37	=37	=37	=37	=37	=37	=37
2FF/	Cru-	2c\	Cru-	2a\	Cru-	2cc\	Cru-
4FF/	-ci-	4A\	-ci-	4a\	-ci-	4cc\	-ci-
=38	=38	=38	=38	=38	=38	=38	=38
2GG/	-fi-	2d\	-fi-	2g\	-fi-	2b-\	-fi-
4GG/	-xi	4B-\	-xi	4g\	-xi	4b-\	-xi
!LO:LB:g=original	!	!	!	!	!	!	!
=39	=39	=39	=39	=39	=39	=39	=39
2AA/	fi-	2c\	fi-	2f\	fi-	2a\	fi-
4BB-/	-ge	4F/	-ge	4f\	-ge	4a\	-ge
=40	=40	=40	=40	=40	=40	=40	=40
2.C/	pla-	2.c\	pla-	2.e\	pla-	2.g\	pla-
=41	=41	=41	=41	=41	=41	=41	=41
2.C/	-gas	2.c\	-gas	2.e\	-gas	2.g\	-gas
!	!	!	!	!	!	!LO:LB:g=original	!
=42	=42	=42	=42	=42	=42	=42	=42
!	!	!LO:N:vis=2.	!	!	!	!	!
2F\	Cor-	2A\	Cor-	2c\	cor-	2f/	cor-
4E\	-di	4c\	-di	4c\	-di	4g/	-di
=43	=43	=43	=43	=43	=43	=43	=43
2F\	me-	2c\	me-	2f\	me-	2a\	me-
4BB-/	-o	4d\	-o	4f\	-o	4b-\	-o
!	!	!	!	!LO:LB:g=original	!	!	!
=44	=44	=44	=44	=44	=44	=44	=44
2C/	va-	2c\	va-	2f\	va-	2g\	va-
4C/	-li-	4c\	-li-	4e\	-li-	4g\	-li-
!	!	!LO:LB:g=original	!	!	!	!	!
=45	=45	=45	=45	=45	=45	=45	=45
!	!	!LO:TX:a:t=P:problem=dwie cienkie kreski	!	!	!	!	!
2.F\	-de,	2.c\	-de,	2.f\	-de.	2.a\	-de
=46|!	=46|!	=46|!	=46|!	=46|!	=46|!	=46|!	=46|!
2D\	Tu-	2A\	Tu-	2d\	tu-	2f/	tu-
4C/	-i	4c\	-i	4e\	-i	4g/	-i
!LO:LB:g=original	!	!	!	!	!	!	!
=47	=47	=47	=47	=47	=47	=47	=47
4.F\	na-	4.c\	na-	4.f\	na-	4.a\	na-
8E\	-ti	8c\	-ti	8c\	-ti	8g\	-ti
4D\	vul-	4d\	vul-	4f\	vul-	(8f/L	vul-
.	.	.	.	.	.	8g/J)	.
=48	=48	=48	=48	=48	=48	=48	=48
4C/	-ne-	4A\	-ne-	4e\	-ne-	4a\	-ne-
2BB-X/	-ra-	2d\	-ra-	(4d\	-ra-	(4a\	-ra-
.	.	.	.	4g\)	.	4g\)	.
!	!	!	!	!	!	!LO:LB:g=original	!
=49	=49	=49	=49	=49	=49	=49	=49
4AA/	-ti	4c#X\	-ti	2e\	-ti,	2.a\	-ti,
4e 4E\	tam	4e\	tam	.	.	.	.
4d 4D\	di-	4d\	di-	4r	.	.	.
=50	=50	=50	=50	=50	=50	=50	=50
!	!	!	!	!LO:TX:a:t=1.	!	!LO:TX:b:t=2.	!
!	!	!	!	!	!	!LO:N:vis=0	!
4c 4C\	-gna,,	2cn\	-gna-	2.r	.	1.r	.
4A\	tam	.	.	.	.	.	.
4G\	di-	4Bn\	-ti	.	.	.	.
=51	=51	=51	=51	=51	=51	=51	=51
2F\	-gna-	2.A\	pro	4r	.	.	.
.	.	.	.	4a\	tam	.	.
4E\	-ti	.	.	4g\	di-	.	.
!	!	!	!	!LO:LB:g=original	!	!	!
=52	=52	=52	=52	=52	=52	=52	=52
2D\	pro	2.A\	me	(8f\L	-gna-	4r	.
.	.	.	.	8e\	.	.	.
.	.	.	.	8f\	.	4dd\	tam
.	.	.	.	8g\J)	.	.	.
4D\	me	.	.	4a\	-ti	4cc\	di-
!LO:LB:g=original	!	!	!	!	!	!	!
=53	=53	=53	=53	=53	=53	=53	=53
[2.E\	pa-	(2G#X\	pro	2e\	pro-	4.bn\	-gna-
.	.	.	.	.	.	8b\	-ti
.	.	4A\)	.	4c\	-me	4cc\	pro
=54	=54	=54	=54	=54	=54	=54	=54
2.E\]	.	4A\	me	2.e\	pa-	4cc\	me
.	.	(4A\	pa-	.	.	(4cc\	pa-
.	.	4G#X\)	.	.	.	4bn\)	.
!	!	!LO:LB:g=original	!	!	!	!	!
=55	=55	=55	=55	=55	=55	=55	=55
2AA/	-ti,	2.A\	-ti,	2.e\	-ti,	2.cc\	-ti
!	!LO:MO:mod=poe-	!	!	!	!	!	!
4F\	pe-	.	.	.	.	.	.
=56	=56	=56	=56	=56	=56	=56	=56
!	!	!	!	!LO:TX:a:t=1.	!	!LO:TX:b:t=2.	!
!	!	!	!	!	!	!LO:N:vis=0	!
4E\	-nas	4r	.	2.r	.	1.r	.
4C/	me-	4r	.	.	.	.	.
!	!	!	!LO:MO:mod=poe-	!	!	!	!
4E\	-cum	4c\	pe-	.	.	.	.
=57	=57	=57	=57	=57	=57	=57	=57
(4.F\	me-	(4A\	-nas	4r	.	.	.
.	.	4F\)	.	4r	.	.	.
8G\L	.	.	.	.	.	.	.
!	!	!	!	!	!LO:MO:mod=poe-	!	!
8A\	.	4c\	me-	4f\	pe-	.	.
8B-\J	.	.	.	.	.	.	.
=58	=58	=58	=58	=58	=58	=58	=58
4c\)	.	(8c\L	-cum	4e\	-nas	4r	.
.	.	8d\	.	.	.	.	.
2C/	-cum	8e\	.	4c\	me-	4r	.
.	.	8d\	.	.	.	.	.
!	!	!	!	!	!	!	!LO:MO:mod=poe-
.	.	8c\	.	4e\	-cum	4cc\	pe-
.	.	8B-\J)	.	.	.	.	.
!	!	!	!	!	!	!LO:LB:g=original	!
=59	=59	=59	=59	=59	=59	=59	=59
!	!	!	!	!	!LO:MO:mod=poe-	!	!
(4.D\	me-	4A\	me-	(4.f\	pe-	4a\	-nas
.	.	2d\	-cum	.	.	4f/	me-
8E\L	.	.	.	8g\)	.	.	.
8F\	.	.	.	4a\	-nas	4a\	-cum
8G\J	.	.	.	.	.	.	.
!	!	!	!	!LO:LB:g=original	!	!	!
=60	=60	=60	=60	=60	=60	=60	=60
2A\)	.	(2c#X\	di-	(4.e\	me-	2a\	di-
.	.	.	.	8f\)	.	.	.
4G\	-cum	4d\	.	4g\	-cum	[4b-X\	.
!LO:LB:g=original	!	!	!	!	!	!	!
=61	=61	=61	=61	=61	=61	=61	=61
(4G\	di-	2d\)	.	(8g\L	di-	4b-\]	.
.	.	.	.	8f\J	.	.	.
4A\)	.	.	.	4.e\)	.	2a\	-vi-
4AA/	-vi-	4c#X\	-vi-	.	.	.	.
.	.	.	.	8e\	-vi-	.	.
=62	=62	=62	=62	=62	=62	=62	=62
!LO:TX:b:t=Offertorium Tempore Paschali	!	!	!	!	!	!	!
2.D\	-de.	2.d\	-de.	2.f#X\	-de.	2.a\	-de.
==	==	==	==	==	==	==	==
*-	*-	*-	*-	*-	*-	*-	*-
!!!system-decoration: [g1]
!!!ENC: Andrzej Kubiczek
!!!END: 2021-03-04
!!!ENC: Andrzej Gręziak
!!!END: 2021-02-01
!!!YEC: Copyright 2022 Narodowy Instytut Fryderyka Chopina (https://polishscores.org)
!!!YEM: License CC-BY-4.0 (https://creativecommons.org/licenses/by/4.0)
